src/assets/svg/poketto-icon.svg

<svg fill="none" height="48" viewBox="0 0 248 248" width="48" xmlns="http://www.w3.org/2000/svg" xmlns:xlink="http://www.w3.org/1999/xlink"><linearGradient id="a"><stop offset="0" stop-color="#ffd131"/><stop offset="1" stop-color="#efa792"/></linearGradient><linearGradient id="b" gradientUnits="userSpaceOnUse" x1="124" x2="124" xlink:href="#a" y1="0" y2="248"/><linearGradient id="c" gradientUnits="userSpaceOnUse" x1="179.8" x2="179.8" xlink:href="#a" y1="75.09" y2="172.912"/><mask id="d" fill="#fff"><path clip-rule="evenodd" d="m192.889 31h-137.7779c-13.3162 0-24.1111 10.7949-24.1111 24.1111v137.7779c0 13.316 10.7949 24.111 24.1111 24.111h137.7779c13.316 0 24.111-10.795 24.111-24.111v-137.7779c0-13.3162-10.795-24.1111-24.111-24.1111zm-137.7779-31c-30.437 0-55.1111 24.6741-55.1111 55.1111v137.7779c0 30.437 24.6741 55.111 55.1111 55.111h137.7779c30.437 0 55.111-24.674 55.111-55.111v-137.7779c0-30.437-24.674-55.1111-55.111-55.1111z" fill="#fff" fill-rule="evenodd"/></mask><path clip-rule="evenodd" d="m192.889 31h-137.7779c-13.3162 0-24.1111 10.7949-24.1111 24.1111v137.7779c0 13.316 10.7949 24.111 24.1111 24.111h137.7779c13.316 0 24.111-10.795 24.111-24.111v-137.7779c0-13.3162-10.795-24.1111-24.111-24.1111zm-137.7779-31c-30.437 0-55.1111 24.6741-55.1111 55.1111v137.7779c0 30.437 24.6741 55.111 55.1111 55.111h137.7779c30.437 0 55.111-24.674 55.111-55.111v-137.7779c0-30.437-24.674-55.1111-55.111-55.1111z" fill="url(#b)" fill-rule="evenodd"/><path d="m55.1111 76h137.7779v-90h-137.7779zm20.8889-20.8889c0 11.5366-9.3523 20.8889-20.8889 20.8889v-90c-38.169 0-69.1111 30.9421-69.1111 69.1111zm0 137.7779v-137.7779h-90v137.7779zm-20.8889-20.889c11.5366 0 20.8889 9.352 20.8889 20.889h-90c0 38.169 30.9421 69.111 69.1111 69.111zm137.7779 0h-137.7779v90h137.7779zm-20.889 20.889c0-11.537 9.352-20.889 20.889-20.889v90c38.169 0 69.111-30.942 69.111-69.111zm0-137.7779v137.7779h90v-137.7779zm20.889 20.8889c-11.537 0-20.889-9.3523-20.889-20.8889h90c0-38.169-30.942-69.1111-69.111-69.1111zm-147.889-20.8889c0-5.5842 4.5269-10.1111 10.1111-10.1111v-90c-55.289821 0-100.1111 44.821263-100.1111 100.1111zm0 137.7779v-137.7779h-90v137.7779zm10.1111 10.111c-5.5842 0-10.1111-4.527-10.1111-10.111h-90c0 55.29 44.82126 100.111 100.1111 100.111zm137.7779 0h-137.7779v90h137.7779zm10.111-10.111c0 5.584-4.527 10.111-10.111 10.111v90c55.29 0 100.111-44.821 100.111-100.111zm0-137.7779v137.7779h90v-137.7779zm-10.111-10.1111c5.584 0 10.111 4.5269 10.111 10.1111h90c0-55.289829-44.821-100.1111-100.111-100.1111zm-137.7779 0h137.7779v-90h-137.7779z" fill="url(#b)" mask="url(#d)"/><path d="m232 106.09v-15.0002h-15-56.489c-18.177 0-32.911 14.7352-32.911 32.9112s14.734 32.911 32.911 32.911h56.489 15v-15zm-105.4 17.911c0-18.729 15.182-33.9112 33.911-33.9112h72.489v67.8222h-72.489c-18.729 0-33.911-15.182-33.911-33.911z" fill="url(#c)" stroke="url(#c)" stroke-width="30"/></svg>

<svg fill="none" height="48" viewBox="0 0 248 248" width="48" xmlns="http://www.w3.org/2000/svg" xmlns:xlink="http://www.w3.org/1999/xlink"><linearGradient id="a"><stop offset="0" stop-color="#ffd131"/><stop offset="1" stop-color="#efa792"/></linearGradient><linearGradient id="b" gradientUnits="userSpaceOnUse" x1="124" x2="124" xlink:href="#a" y2="248"/><linearGradient id="d" gradientUnits="userSpaceOnUse" x1="179.8" x2="179.8" xlink:href="#a" y1="75.09" y2="172.912"/><mask id="c" fill="#fff"><path clip-rule="evenodd" d="M192.889 31H55.111C41.795 31 31 41.795 31 55.111V192.89C31 206.205 41.795 217 55.111 217H192.89C206.205 217 217 206.205 217 192.889V55.111C217 41.795 206.205 31 192.889 31zM55.111 0C24.674 0 0 24.674 0 55.111V192.89C0 223.326 24.674 248 55.111 248H192.89C223.326 248 248 223.326 248 192.889V55.111C248 24.674 223.326 0 192.889 0z" fill-rule="evenodd"/></mask><path clip-rule="evenodd" d="M192.889 31H55.111C41.795 31 31 41.795 31 55.111V192.89C31 206.205 41.795 217 55.111 217H192.89C206.205 217 217 206.205 217 192.889V55.111C217 41.795 206.205 31 192.889 31zM55.111 0C24.674 0 0 24.674 0 55.111V192.89C0 223.326 24.674 248 55.111 248H192.89C223.326 248 248 223.326 248 192.889V55.111C248 24.674 223.326 0 192.889 0z" fill="url(#b)" fill-rule="evenodd"/><path d="M55.111 76H192.89v-90H55.111zM76 55.111C76 66.648 66.648 76 55.111 76v-90C16.942-14-14 16.942-14 55.111zm0 137.778V55.111h-90V192.89zM55.111 172C66.648 172 76 181.352 76 192.889h-90C-14 231.058 16.942 262 55.111 262zm137.778 0H55.111v90H192.89zM172 192.889c0-11.537 9.352-20.889 20.889-20.889v90C231.058 262 262 231.058 262 192.889zm0-137.778V192.89h90V55.111zM192.889 76C181.352 76 172 66.648 172 55.111h90C262 16.942 231.058-14 192.889-14zM45 55.111C45 49.527 49.527 45 55.111 45v-90C-.179-45-45-.179-45 55.111zm0 137.778V55.111h-90V192.89zM55.111 203C49.527 203 45 198.473 45 192.889h-90C-45 248.179-.179 293 55.111 293zm137.778 0H55.111v90H192.89zM203 192.889c0 5.584-4.527 10.111-10.111 10.111v90C248.179 293 293 248.179 293 192.889zm0-137.778V192.89h90V55.111zM192.889 45C198.473 45 203 49.527 203 55.111h90C293-.179 248.179-45 192.889-45zM55.111 45H192.89v-90H55.111z" fill="url(#b)" mask="url(#c)"/><path d="M232 106.09v-15h-71.489c-18.177 0-32.911 14.735-32.911 32.911s14.734 32.911 32.911 32.911H232v-15zm-105.4 17.911c0-18.729 15.182-33.911 33.911-33.911H233v67.822h-72.489c-18.729 0-33.911-15.182-33.911-33.911z" fill="url(#d)" stroke="url(#d)" stroke-width="30"/></svg>
